lib/svg/cloud-upload.svg

<svg xmlns="http://www.w3.org/2000/svg" width="16" height="16" viewBox="0 0 16 16"><path d="M7 9H5l3-3 3 3H9v5H7V9zm5-4c0-.44-.91-3-4.5-3C5.08 2 3 3.92 3 6 1.02 6 0 7.52 0 9c0 1.53 1 3 3 3h3v-1.3H3c-1.62 0-1.7-1.42-1.7-1.7 0-.17.05-1.7 1.7-1.7h1.3V6c0-1.39 1.56-2.7 3.2-2.7 2.55 0 3.13 1.55 3.2 1.8v1.2H12c.81 0 2.7.22 2.7 2.2 0 2.09-2.25 2.2-2.7 2.2h-2V12h2c2.08 0 4-1.16 4-3.5C16 6.06 14.08 5 12 5z"/></svg>

<?xml version="1.0" encoding="UTF-8" standalone="no"?>
<svg width="16px" height="16px" viewBox="0 0 16 16" version="1.1" xmlns="http://www.w3.org/2000/svg" xmlns:xlink="http://www.w3.org/1999/xlink">
    <!-- Generator: Sketch 3.8.3 (29802) - http://www.bohemiancoding.com/sketch -->
    <title>cloud-upload</title>
    <desc>Created with Sketch.</desc>
    <defs></defs>
    <g id="Octicons" stroke="none" stroke-width="1" fill="none" fill-rule="evenodd">
        <g id="cloud-upload" fill="#000000">
            <path d="M7,9 L5,9 L8,6 L11,9 L9,9 L9,14 L7,14 L7,9 L7,9 Z M12,5 C12,4.56 11.09,2 7.5,2 C5.08,2 3,3.92 3,6 C1.02,6 0,7.52 0,9 C0,10.53 1,12 3,12 L6,12 L6,10.7 L3,10.7 C1.38,10.7 1.3,9.28 1.3,9 C1.3,8.83 1.35,7.3 3,7.3 L4.3,7.3 L4.3,6 C4.3,4.61 5.86,3.3 7.5,3.3 C10.05,3.3 10.63,4.85 10.7,5.1 L10.7,6.3 L12,6.3 C12.81,6.3 14.7,6.52 14.7,8.5 C14.7,10.59 12.45,10.7 12,10.7 L10,10.7 L10,12 L12,12 C14.08,12 16,10.84 16,8.5 C16,6.06 14.08,5 12,5 L12,5 Z" id="Shape"></path>
        </g>
    </g>
</svg>
